X: 2230
T: IS IT THE PRIEST YOU WANT
Q: "Irish Jig."
R: Jig.
%R: jig
B: James Kerr "Merry Melodies" v.2 p.26 #230
Z: 2016 John Chambers <jc:trillian.mit.edu>
M: 6/8
L: 1/8
K: G
ue |\
edB ud2uB | (d2B) (B2e) | edB ud2uB | (c2A) (A2e) |\
edB ud2uB | (d2B) (B2e) | edB gfg | B2G G2 :|
|: ud |\
vg2vg faf | vg2ve ue2ue | a2a aga | b2e e2ud |\
vg2g faf | vg2ve ue2ue | edB gfg | B2G G2 :|
